X:1
T:Title
%%score { ( 1 4 ) | ( 2 3 ) }
L:1/8
Q:1/4=100
M:4/4
K:Eb
V:1 treble nm="Grand Piano"
V:4 treble 
V:2 bass 
V:3 bass 
V:1
 G3 G G2 F2 | E2 [CEA]2 [EG]2 [DF]2 | [FB]3 B c2 B2 | [DB]2 [DA]2 [DF]4 | G3 G F2 G2 | %5
w: R.~Menthall * * *|||||
 A2 c2 c2 B2 | E3 E F2 A2 | [DG]2 [DF]2 E4 | [DB]2 [DB]2 [EB]2 [DB]2 | [GB]2 [FB]2 B2- [EB]2 | %10
w: |||||
 G2 A2 c2 B2 | B2 =A2 [DB]4 | G3 G G2 F2 | E2 F2 G2 B2 | E3 E E2 A2 | [DG]2 [DF]2 E4 |] %16
w: ||||||
V:2
 [E,B,E]3 [E,B,E] [E,B,E]2 [E,A,E]2 | [E,G,]2 A,,2 [B,,B,]4 | [D,A,]3 [E,G,E] [E,A,E]2 [E,G,E]2 | %3
 [B,,F,]2 [B,,F,]2 [B,,B,]4 | [E,B,E]3 [E,B,E] [A,B,D]2 [G,B,D]2 | %5
 [F,B,D]2 [F,A,D]2 [E,E]2- [E,G,E]2 | [G,B,]3 [G,B,] [A,CE]2 [F,CE]2 | [B,,B,]2 [B,,A,]2 [E,G,]4 | %8
 [B,,F,]2 [B,,F,]2 [B,,G,]2 [B,,F,]2 | z4 A,2 z2 | [E,B,E]2 [E,CE]2 [E,A,E]2 [E,G,E]2 | %11
 [F,E]2 [F,CE]2 [B,,B,]4 | [E,B,E]3 [E,B,E] [E,B,E]2 [E,A,E]2 | z4 B,2 z2 | %14
 [A,C]3 [A,C] [A,C]2 [F,=B,E]2 | [B,,B,]2 [B,,A,]2 [E,G,]4 |] %16
V:3
 x8 | x8 | x8 | x8 | x8 | z4 A,2 z2 | x8 | x8 | x8 | [B,,B,]2 [B,,A,]2 E,2- [E,G,]2 | x8 | x8 | %12
 x8 | [E,G,]2 [E,A,E]2 [E,E]2- [E,_DE]2 | x8 | x8 |] %16
V:4
 x8 | x8 | x8 | x8 | x8 | x8 | x8 | x8 | x8 | z4 F2 z2 | x8 | x8 | x8 | x8 | x8 | x8 |] %16

